src/helpers/heroicons/solid/building-storefront.svg

<svg width="24" height="24" viewBox="0 0 24 24" fill="none" xmlns="http://www.w3.org/2000/svg">
<path d="M5.22335 2.25C4.72607 2.25 4.24916 2.44754 3.89752 2.79917L2.59835 4.09835C1.13388 5.56282 1.13388 7.93718 2.59835 9.40165C3.93551 10.7388 6.03124 10.8551 7.50029 9.75038C8.12669 10.2206 8.90598 10.5 9.75 10.5C10.5941 10.5 11.3736 10.2205 12 9.75016C12.6264 10.2205 13.4059 10.5 14.25 10.5C15.094 10.5 15.8733 10.2206 16.4997 9.75038C17.9688 10.8551 20.0645 10.7388 21.4017 9.40165C22.8661 7.93718 22.8661 5.56282 21.4017 4.09835L20.1025 2.79918C19.7508 2.44755 19.2739 2.25 18.7767 2.25L5.22335 2.25Z" />
<path fill-rule="evenodd" clip-rule="evenodd" d="M3 20.25V11.4951C4.42021 12.1686 6.07989 12.1681 7.50044 11.4944C8.18265 11.8183 8.94611 12 9.75 12C10.5541 12 11.3177 11.8182 12 11.4942C12.6823 11.8182 13.4459 12 14.25 12C15.0539 12 15.8173 11.8183 16.4996 11.4944C17.9201 12.1681 19.5798 12.1686 21 11.4951V20.25H21.75C22.1642 20.25 22.5 20.5858 22.5 21C22.5 21.4142 22.1642 21.75 21.75 21.75H2.25C1.83579 21.75 1.5 21.4142 1.5 21C1.5 20.5858 1.83579 20.25 2.25 20.25H3ZM6 14.25C6 13.8358 6.33579 13.5 6.75 13.5H9.75C10.1642 13.5 10.5 13.8358 10.5 14.25V17.25C10.5 17.6642 10.1642 18 9.75 18H6.75C6.33579 18 6 17.6642 6 17.25V14.25ZM14.25 13.5C13.8358 13.5 13.5 13.8358 13.5 14.25V19.5C13.5 19.9142 13.8358 20.25 14.25 20.25H17.25C17.6642 20.25 18 19.9142 18 19.5V14.25C18 13.8358 17.6642 13.5 17.25 13.5H14.25Z" />
</svg>

<svg xmlns="http://www.w3.org/2000/svg" viewBox="0 0 24 24" fill="currentColor" aria-hidden="true" data-slot="icon">
  <path d="M5.223 2.25c-.497 0-.974.198-1.325.55l-1.3 1.298A3.75 3.75 0 0 0 7.5 9.75c.627.47 1.406.75 2.25.75.844 0 1.624-.28 2.25-.75.626.47 1.406.75 2.25.75.844 0 1.623-.28 2.25-.75a3.75 3.75 0 0 0 4.902-5.652l-1.3-1.299a1.875 1.875 0 0 0-1.325-.549H5.223Z"/>
  <path fill-rule="evenodd" d="M3 20.25v-8.755c1.42.674 3.08.673 4.5 0A5.234 5.234 0 0 0 9.75 12c.804 0 1.568-.182 2.25-.506a5.234 5.234 0 0 0 2.25.506c.804 0 1.567-.182 2.25-.506 1.42.674 3.08.675 4.5.001v8.755h.75a.75.75 0 0 1 0 1.5H2.25a.75.75 0 0 1 0-1.5H3Zm3-6a.75.75 0 0 1 .75-.75h3a.75.75 0 0 1 .75.75v3a.75.75 0 0 1-.75.75h-3a.75.75 0 0 1-.75-.75v-3Zm8.25-.75a.75.75 0 0 0-.75.75v5.25c0 .414.336.75.75.75h3a.75.75 0 0 0 .75-.75v-5.25a.75.75 0 0 0-.75-.75h-3Z" clip-rule="evenodd"/>
</svg>
